X: 23086
T: Laughing Waters
R: reel
M: 4/4
K: Gmajor
|:DEGB AE~E2|AEBE AE~E2|DEGA Bdef|gedB AGEG|
DEGB AE~E2|AEBE AE~E2|DEGA Bdef|gedB AGEG:|
|:B2dB eBdB|B2dB AGEG|B2dB eBdB|cABG AGEG|
B2dB eBdB|B2dB AGEG|g3f efge|d2BG AGEG:|

